components/2.0/icon/icons/icon-alert-circle-22px.svg

<?xml version="1.0" encoding="UTF-8" standalone="no"?>
<svg width="22px" height="22px" viewBox="0 0 22 22" version="1.1" xmlns="http://www.w3.org/2000/svg" xmlns:xlink="http://www.w3.org/1999/xlink" xmlns:sketch="http://www.bohemiancoding.com/sketch/ns">
    <!-- Generator: Sketch 3.4.4 (17249) - http://www.bohemiancoding.com/sketch -->
    <title>icon-alert-circle-22px</title>
    <desc>Created with Sketch.</desc>
    <defs></defs>
    <g id="22px" stroke="none" stroke-width="1" fill="none" fill-rule="evenodd" sketch:type="MSPage">
        <g id="icon-alert-circle-22px" sketch:type="MSArtboardGroup" fill="#5A5A5A">
            <path d="M12,12 L10,12 L10,6 L12,6 L12,12 Z M12,15 L10,15 L10,13 L12,13 L12,15 Z M11,2 C6.029,2 2,6.029 2,11 C2,15.97 6.029,20 11,20 C15.971,20 20,15.97 20,11 C20,6.029 15.971,2 11,2 L11,2 Z" id="alert-circle" sketch:type="MSShapeGroup"></path>
        </g>
    </g>
</svg>

<svg width="22" height="22" xmlns="http://www.w3.org/2000/svg"><path d="M12 12h-2V6h2v6zm0 3h-2v-2h2v2zM11 2c-5 0-9 4-9 9s4 9 9 9 9-4 9-9-4-9-9-9z" fill="#5A5A5A" fill-rule="evenodd"/></svg>
